!!!COM: Corelli, Arcangelo
!!!OTL: Sonata da chiesa
!!!OPS: 1
!!!ONM: 5
!!!OMV: 1
!!!OMD: Grave
**kern	**fb	**kern	**kern	**kern
*part4	*part4	*part3	*part2	*part1
*staff4	*	*staff3	*staff2	*staff1
*I"Organo	*	*I"Violone	*I"Violino II	*I"Violino I
*clefF4	*	*clefF4	*clefG2	*clefG2
*k[b-]	*	*k[b-]	*k[b-]	*k[b-]
*M3/2	*	*M3/2	*M3/2	*M3/2
=1	=1	=1	=1	=1
2r	.	2r	2r	2r
1BB-	.	1BB-	2b-	2dd
.	.	.	2cc	2ee-X
=	=	=	=	=
1BB-	5	1BB-	1dd	1ff
2D	6	2D	[2b-	2ff
=	=	=	=	=
2E-X	6 5	2E-X	2b-]	2gg
1F	5 4	1F	1a	2.ff
.	3	.	.	.
.	.	.	.	4ee-X
=	=	=	=	=
1BB-	.	1BB-	1b-	1dd
2B-	6	2B-	2dd	2gg
=	=	=	=	=
2A	6	2A	2cc	2ff
1G	-r6	1G	2.b-	2.ee-X
.	.	.	4b-	4ee-
=	=	=	=	=
1F	-7	1F	1a	2ee-X
.	6	.	.	2dd
2D	6	2D	[2b-	2ff
=	=	=	=	=
2E-X	.	2E-X	2b-]	4ee-X
.	.	.	.	4dd
2F	5 4	2F	2.b-	2.cc
2FF	3	2FF	.	.
.	.	.	4a	4cc
=	=	=	=	=
2BB-	.	2BB-	2b-	2b-
2B-	.	2B-	2dd	2ff
2B-	.	2B-	2dd	2ff
=	=	=	=	=
1B-	6 nr4	1B-	1ee	1gg
2A	6	2A	2ff	2ccc
=	=	=	=	=
1G	7	1G	1ff	1bb-
2C	7	2C	2ee	2bb-
=	=	=	=	=
1F	.	1F	1ff	1aa
[2F	.	[2F	2f	2a
=	=	=	=	=
1F]	4 2	1F]	1g	1b-
[2E-X	6	[2E-X	2g	2cc
=	=	=	=	=
1E-]	4 2	1E-]	1f	1a
[2D	6	[2D	[2f	[2b-
=	=	=	=	=
2D]	.	2D]	2f]	2b-]
1C	7 -	1C	1e-X	2.b-
.	6	.	.	.
.	.	.	.	4a
=	=	=	=	=
1BB-	5	1BB-	1d	2b-
.	6	.	.	[1gg
2B-	6	2B-	2dd	.
=	=	=	=	=
1A	7	1A	1cc	2gg]
.	#6\	.	.	2.ff#X
2D	7 #	2D	2cc	.
.	.	.	.	4ff#
=	=	=	=	=
1G	5	1G	1b-	2gg
.	-r6	.	.	2ee-X
2G	.	2G	2b-	2ee-
=	=	=	=	=
2F	6	2F	2a	2dd
1E-X	6	1E-X	1g	1cc
=	=	=	=	=
1D	#	1D	2f#X	2dd
.	.	.	[1dd	2r
2BBn	6	2BBn	.	2r
=	=	=	=	=
1C	9 -	1C	2dd]	[1.ee-X
.	8	.	(4cc	.
.	.	.	4b-)	.
2C	6	2C	(4a	.
.	.	.	4g)	.
=	=	=	=	=
1D	-9 #	1D	1.f#X	2ee-]
.	8	.	.	(4dd
.	.	.	.	4cc)
2D	.	2D	.	(4b-
.	.	.	.	4a)
=	=	=	=	=
1GG	.	1GG	1g	2b-
.	.	.	.	2cc
2GG	-7 5 n	2GG	2f	[2dd
=	=	=	=	=
1C	9 n	1C	2e	2dd]
.	8	.	2f#X	[1cc
2C	.	2C	2g	.
=	=	=	=	=
1D	7 #	1D	2f#X	1cc]
.	.	.	2d	.
2E-X	5	2E-X	[2g	2b-
=	=	=	=	=
2C	6 5 -	2C	2g]	1.a
1D	5 4	1D	2.g	.
.	#	.	.	.
.	.	.	4f#X	.
=	=	=	=	=
1GG	.	1GG	1g	2g
.	.	.	.	[1gg
2E-X	6	2E-X	2r	.
=	=	=	=	=
1F	9 -	1F	[1.aa-X	2gg]
.	8	.	.	(4ff
.	.	.	.	4ee-X)
2F	6 -	2F	.	(4dd
.	.	.	.	4cc)
=	=	=	=	=
1G	-9 n	1G	2aa-]	1.bn
.	8	.	(4gg	.
.	.	.	4ff)	.
2GG	-6 n	2GG	(4ee-X	.
.	5	.	4dd)	.
=	=	=	=	=
1C	-	1C	2ee-X	1cc
.	.	.	2ff	.
2C	7 n	2C	[2gg	2b-
=	=	=	=	=
1F	9 n	1F	2gg]	2a
.	8	.	[1ff	2bn
2F	.	2F	.	2cc
=	=	=	=	=
1G	7 n	1G	1ff]	2bn
.	.	.	.	2g
2A-X	-r5	2A-X	2ee-X	[2cc
=	=	=	=	=
2F	6 5 -	2F	1.dd	2cc]
2G	5 4	2G	.	2.cc
2GG	n	2GG	.	.
.	.	.	.	4bn
=	=	=	=	=
2C	.	2C	2cc	2cc
1BBn	6	1BBn	2r	(4gg
.	.	.	.	4ff)
.	.	.	2r	(4ee-X
.	.	.	.	4dd)
=	=	=	=	=
1C	-	1C	2r	2ee-X
.	.	.	4ccc	[1ee-
.	.	.	4bb-	.
2C	6 -	2C	4aa	.
.	.	.	4gg	.
=	=	=	=	=
1D	-9 #	1D	1.ff#X	2ee-]
.	8	.	.	4dd
.	.	.	.	4cc
2D	.	2D	.	4b-
.	.	.	.	4a
=	=	=	=	=
1GG	.	1GG	1gg	2b-
.	.	.	.	2cc
2GG	7 5 n	2GG	2ff	[2dd
=	=	=	=	=
1C	7 n	1C	2ee	2dd]
.	8	.	2ff#X	[1cc
2C	.	2C	2gg	.
=	=	=	=	=
1D	7 #	1D	2ff#X	1cc]
.	.	.	2dd	.
2E-X	5	2E-X	[2gg	2b-
=	=	=	=	=
2C	6 5	2C	2gg]	1.a
1D	5 4	1D	2.gg	.
.	#	.	.	.
.	.	.	4ff#X	.
=	=	=	=	=
1GG	.	1GG	1gg	1g
[2G	-r6	[2G	[2b-	[2ee-X
=	=	=	=	=
2G]	.	2G]	2b-]	2ee-]
1E-X	6	1E-X	2.g	2.cc
.	.	.	4f#X	4dd
=	=	=	=	=
1.D	#	1.D	1.f#X	1.dd
=||	=||	=||	=||	=||
*-	*-	*-	*-	*-
!!!system-decoration: [{s1,s2},s3,s4]
!!!YEM: CC BY-NC-SA 4.0; CCARH; DCML